icon/gr/heroku.svg

<svg xmlns="http://www.w3.org/2000/svg" viewBox="0 0 24 24" height="1em" width="1em">
  <path fill="#6762A6" fill-rule="evenodd" d="M20.4425631,0 L3.16168659,0 C1.96912351,0 1,0.966467463 1,2.16168659 L1,21.8403054 C1,23.0335325 1.96912351,24 3.16168659,24 L20.4425631,24 C21.6354582,24 22.6015936,23.0335325 22.6015936,21.8403054 L22.6015936,2.16168659 C22.6015936,0.966467463 21.6354582,0 20.4425631,0 L20.4425631,0 Z M21.4013944,21.8403054 C21.4013944,22.3701859 20.9721116,22.7991368 20.4425631,22.7991368 L3.16168659,22.7991368 C2.63247012,22.7991368 2.2001992,22.3701859 2.2001992,21.8403054 L2.2001992,2.16168659 C2.2001992,1.62981408 2.63247012,1.2001992 3.16168659,1.2001992 L20.4425631,1.2001992 C20.9721116,1.2001992 21.4013944,1.62981408 21.4013944,2.16168659 L21.4013944,21.8403054 Z M6.40036521,20.4013612 L9.10222444,18.0002988 L6.40036521,15.5999004 L6.40036521,20.4013612 L6.40036521,20.4013612 Z M16.1577357,10.6722776 C15.672012,10.1838977 14.7852258,9.60056441 13.302158,9.60056441 C11.675,9.60056441 9.99903718,10.0245352 8.80116202,10.4126494 L8.80116202,3.60122842 L6.40043161,3.60122842 L6.40043161,14.0085989 L8.09697875,13.2400066 C8.1251992,13.2273904 10.860259,12.0012948 13.302158,12.0012948 C14.5202855,12.0012948 14.7902058,12.6719456 14.8031541,13.2323705 L14.8031541,20.4013612 L17.2012284,20.4013612 L17.2012284,13.201494 C17.2038845,13.0474436 17.1886122,11.7157703 16.1577357,10.6722776 M13.0012948,7.50039841 L15.4020252,7.50039841 C16.4866866,6.27164675 17.0394754,4.96354582 17.201494,3.60099602 L14.8030876,3.60099602 C14.5358234,4.96088977 13.9445219,6.26135458 13.0012948,7.50039841"/>
</svg>

<svg xmlns="http://www.w3.org/2000/svg" width="24" height="24"><path fill="#6762A6" fill-rule="evenodd" d="M20.443 0H3.162A2.162 2.162 0 0 0 1 2.162V21.84C1 23.034 1.97 24 3.162 24h17.28a2.159 2.159 0 0 0 2.16-2.16V2.162A2.16 2.16 0 0 0 20.442 0Zm.958 21.84c0 .53-.429.96-.958.96H3.162a.961.961 0 0 1-.962-.96V2.162c0-.532.432-.962.962-.962h17.28c.53 0 .96.43.96.962V21.84Zm-15-1.439 2.701-2.4L6.4 15.6V20.4Zm9.757-9.729c-.486-.488-1.373-1.071-2.856-1.071-1.627 0-3.303.424-4.5.812V3.6H6.4V14.01l1.697-.769c.028-.013 2.763-1.239 5.205-1.239 1.218 0 1.488.67 1.501 1.231v7.17h2.398v-7.2c.003-.155-.012-1.486-1.043-2.53M13 7.5h2.401c1.085-1.228 1.637-2.536 1.8-3.899h-2.399c-.267 1.36-.858 2.66-1.802 3.9"/></svg>
